icons/subscript.svg

<svg width="14" height="14" xmlns="http://www.w3.org/2000/svg"><path d="M5.95438741,4.5 L8.7850203,7.30626765 C9.17584914,7.69373235 9.17584914,8.32193676 8.7850203,8.70940147 C8.39419145,9.09686618 7.7605327,9.09686618 7.36970385,8.70940147 L4.53907097,5.90313382 L1.70843808,8.70940147 C1.31760923,9.09686618 0.683950477,9.09686618 0.293121633,8.70940147 C-0.097707211,8.32193676 -0.097707211,7.69373235 0.293121633,7.30626765 L3.12375452,4.5 L0.293121633,1.69373235 C-0.097707211,1.30626765 -0.097707211,0.678063236 0.293121633,0.29059853 C0.683950477,-0.0968661766 1.31760923,-0.0968661766 1.70843808,0.29059853 L4.53907097,3.09686618 L7.36970385,0.29059853 C7.7605327,-0.0968661766 8.39419145,-0.0968661766 8.7850203,0.29059853 C9.17584914,0.678063236 9.17584914,1.30626765 8.7850203,1.69373235 L5.95438741,4.5 Z M14,12.3519235 L14,14 L9.07814193,14 L9.07814193,12.9855469 L9.17911195,12.740495 L10.9800051,10.826951 C11.4133348,10.392144 11.77981,10.0571893 11.9106676,9.81557985 C12.0353516,9.58536908 12.0941418,9.38912772 12.0941418,9.22851562 C12.0941418,9.08820171 12.0529006,8.98652895 11.9660329,8.90193322 C11.8784905,8.81668046 11.7672384,8.77460938 11.6114715,8.77460938 C11.4636071,8.77460938 11.3523966,8.82385579 11.2538919,8.93290599 C11.1476773,9.05049131 11.0872658,9.22080769 11.0789418,9.45806499 L11.067089,9.79589844 L9.2269351,9.79589844 L9.24400536,9.42973922 C9.27824372,8.69532221 9.51816978,8.09947682 9.96736119,7.66058259 C10.4175505,7.22071332 10.9973662,7 11.6859406,7 C12.1131716,7 12.4979375,7.09112961 12.8348078,7.27522069 C13.1746136,7.46091603 13.4472171,7.72952508 13.6486043,8.07526694 C13.8483691,8.41822347 13.9503539,8.77415268 13.9503539,9.13828125 C13.9503539,9.55406894 13.7188967,9.98681416 13.4907809,10.4451899 C13.2667292,10.8953993 12.9524998,11.3208384 12.4178891,12.0000117 L12.3003917,12.1228516 L12.0445871,12.3519235 L14,12.3519235 Z"/></svg>

<svg width="14" height="14" xmlns="http://www.w3.org/2000/svg" fill="currentColor"><path d="m5.954 4.5 2.831 2.806a.986.986 0 0 1 0 1.403 1.007 1.007 0 0 1-1.415 0L4.54 5.903 1.707 8.71a1.007 1.007 0 0 1-1.415 0 .986.986 0 0 1 0-1.403L3.123 4.5.294 1.694a.986.986 0 0 1 0-1.403 1.007 1.007 0 0 1 1.415 0L4.54 3.097 7.37.29a1.007 1.007 0 0 1 1.416 0 .986.986 0 0 1 0 1.403L5.955 4.5ZM14 12.352V14H9.078v-1.014l.101-.246 1.801-1.913c.433-.435.8-.77.93-1.011.125-.23.184-.427.184-.587a.424.424 0 0 0-.128-.327.475.475 0 0 0-.355-.127.448.448 0 0 0-.357.158c-.106.117-.167.288-.175.525l-.012.338h-1.84l.017-.366c.034-.735.274-1.33.723-1.77.45-.44 1.03-.66 1.719-.66.427 0 .812.091 1.149.275.34.186.612.455.814.8.2.343.301.7.301 1.063 0 .416-.231.849-.46 1.307-.223.45-.538.876-1.072 1.555l-.118.123-.255.229H14Z"/></svg>
